X: 1
P: Pretty Peggy
R: reel
C: Athole, arr. T. Traub 9-25-95
M: 4/4
L: 1/8
K: D
|: A|"D"d2 fd AFDA|"D"d2 fd "A"e/f/g fe|"D"d2 fd "Bm"AFDF |"Em"GEFD "A"CE E :|
A|"D"F/E/D AD BDAD|"Em"GEFD "A"CEEA|"D"F/E/D AD BDAD|"A"GFED "D"A,DDA|
"D"F/E/D dD cDBD|"D"AD F/E/D "A"CEEG|"D"FAdf "G"ecdB|"A"AFGE "D"FD D |]
